X:1
T:Title
%%score { 1 | 2 }
L:1/8
M:3/4
K:Db
V:1 treble nm="Grand Piano"
V:2 bass 
V:1
 z2 z2[Q:1/4=110] A2 | [Fd]4 FB | A2 A2 [B,DG]2 | [DF]2 [CF]2 [CE]2 | D4 D2 | G4 FB | A2 A2 F2 | %7
 E2 =G2 B2 | A4 [GA]2 | [Fd]4 [Gc][GB] | [FA]2 [FA]2 [A,DF]2 | [B,DG]2 [DG]2 [DFA]2 | %12
 [DGB]4 [DGB]2 | [DBd]4 [DAc][DGB] | [DFA]2 [Fd]2 F2 | A2 E2 [CA]2 | [DF]4 [FA]2 | [Af]4 [Ae][Ad] | %18
 [Bd]2 B3 B | A2 c2 e2 |[M:2/4] [Fd]4 |] %21
V:2
 z2 z2 A,2 | [D,A,]4 [D,A,D][D,G,D] | [D,F,D]2 [D,F,D]2 G,,2 | [A,,A,]2 [A,,A,]2 [A,,G,]2 | %4
 [D,F,]4 [D,F,]2 | [D,B,D]4 [D,A,D][D,G,D] | [D,F,D]2 [D,F,D]2 [D,A,D]2 | %7
 [E,=G,D]2 [E,B,D]2 [E,DE]2 | [A,CE]4 [E,A,]2 | [D,A,]4 [D,A,][D,B,] | [D,D]2 [D,D]2 D,2 | %11
 G,,2 B,,2 D,2 | G,4 G,2 | G,4 G,G, | D,2 [D,A,]2 [D,A,D]2 | [E,A,C]2 [A,C]2 [A,,A,]2 | %16
 [D,A,]4 [D,D]2 | [D,D]4 [E,C][F,D] | [G,D]2[K:treble] [G,DG]3 [G,DG] | [A,CG]2 [A,EG]2 [A,G]2 | %20
[M:2/4][K:bass] [D,A,]4 |] %21

